austria/municipalities/70501.svg

<svg height="195" width="169" xmlns="http://www.w3.org/2000/svg"><path d="M68.405 192.567c-33.958-6.87-60.831-34.79-66.298-68.869-.64-3.985-1.052-29.194-1.056-64.597L1.043 1.039h166.896V60.4c0 50.234-.245 60.552-1.592 67.11-6.625 32.237-32.286 58.057-64.261 64.667-10.459 2.16-24.129 2.32-33.682.39z" fill="#fff"/><path d="M68.405 192.567c-33.958-6.87-60.831-34.79-66.298-68.869-.64-3.985-1.052-29.194-1.056-64.597L1.043 1.039h166.896V60.4c0 50.234-.245 60.552-1.592 67.11-6.625 32.237-32.286 58.057-64.261 64.667-10.459 2.16-24.129 2.32-33.682.39zm71.14-19.06c5.944-4.83 15.656-17.21 18.527-23.62l1.907-4.26-5.466-4.901c-3.353-3.005-7.074-9.013-9.728-17.136-2.431-7.441-7.859-15.281-12.963-18.72-1.866-1.258-6.091-3.271-9.39-4.473-11.107-4.051-19.695-15.213-21.839-28.386-1.978-12.151-7.277-18.817-19.576-24.628C68.07 41.265 60.67 31.834 58.242 18.357c-.571-3.166-2.143-7.452-3.495-9.526l-6.195-7.508H1.326v10.489c0 9.592 3.909 14.281 5.741 14.862C10.76 27.846 19.258 35.34 22.27 40.08c1.64 2.582 3.7 7.182 4.576 10.224 3.34 11.59 7.529 16.596 20.43 24.41 14.382 8.711 19.004 14.681 23.232 30.008 3.631 13.163 10.041 20.986 22.192 27.084 13.363 6.705 20.356 13.921 23.39 24.141.767 2.58 2.079 6.02 2.917 7.64 1.595 3.08 12.836 14.19 14.377 14.19.491 0 3.263-1.92 6.161-4.27z" fill="#272" stroke="#000" stroke-width="2"/></svg>

<?xml version="1.0"?>
<svg height="195" width="169" xmlns="http://www.w3.org/2000/svg">
<path d="M68.405 192.567C34.447 185.697 7.574 157.777 2.107 123.698 1.467 119.713 1.055 94.504 1.051 59.101l-.008-58.062 83.448 0 83.448 0 0 59.361c0 50.234-.245 60.552-1.592 67.11-6.625 32.237-32.286 58.057-64.261 64.667-10.459 2.16-24.129 2.32-33.682.39z" fill="#fff"/>
<path d="M68.405 192.567C34.447 185.697 7.574 157.777 2.107 123.698 1.467 119.713 1.055 94.504 1.051 59.101l-.008-58.062 83.448 0 83.448 0 0 59.361c0 50.234-.245 60.552-1.592 67.11-6.625 32.237-32.286 58.057-64.261 64.667-10.459 2.16-24.129 2.32-33.682.39zm71.14-19.06c5.944-4.83 15.656-17.21 18.527-23.62l1.907-4.26-5.466-4.901c-3.353-3.005-7.074-9.013-9.728-17.136-2.431-7.441-7.859-15.281-12.963-18.72-1.866-1.258-6.091-3.271-9.39-4.473C111.325 96.346 102.737 85.184 100.593 72.011 98.615 59.86 93.316 53.194 81.017 47.383 68.07 41.265 60.67 31.834 58.242 18.357 57.671 15.191 56.099 10.905 54.747 8.831l-6.195-7.508-23.613 0-23.613 0 0 10.489c0 9.592 3.909 14.281 5.741 14.862 3.693 1.172 12.191 8.666 15.203 13.406 1.64 2.582 3.7 7.182 4.576 10.224 3.34 11.59 7.529 16.596 20.43 24.41 14.382 8.711 19.004 14.681 23.232 30.008 3.631 13.163 10.041 20.986 22.192 27.084 13.363 6.705 20.356 13.921 23.39 24.141.767 2.58 2.079 6.02 2.917 7.64 1.595 3.08 12.836 14.19 14.377 14.19.491 0 3.263-1.92 6.161-4.27z" fill="#272" stroke="#000" stroke-width="2"/>
</svg>
